resources/haticons/SVG/mic_off.svg

<!-- Generated by IcoMoon.io -->
<svg version="1.1" xmlns="http://www.w3.org/2000/svg" width="24" height="24" viewBox="0 0 24 24">
<title>mic_off</title>
<path d="M4.266 3l16.734 16.734-1.266 1.266-4.172-4.172q-1.031 0.656-2.578 0.891v3.281h-1.969v-3.281q-2.484-0.375-4.242-2.273t-1.758-4.43h1.688q0 2.203 1.57 3.633t3.727 1.43q1.172 0 2.297-0.516l-1.641-1.641q-0.375 0.094-0.656 0.094-1.219 0-2.109-0.891t-0.891-2.109v-0.75l-6-6zM15 11.156l-6-5.953v-0.188q0-1.219 0.891-2.109t2.109-0.891 2.109 0.891 0.891 2.109v6.141zM18.984 11.016q0 1.734-0.891 3.281l-1.219-1.266q0.422-0.938 0.422-2.016h1.688z"></path>
</svg>

<svg xmlns="http://www.w3.org/2000/svg" width="24" height="24"><path d="M4.266 3L21 19.734 19.734 21l-4.172-4.172q-1.031.656-2.578.891V21h-1.969v-3.281q-2.484-.375-4.242-2.273t-1.758-4.43h1.688q0 2.203 1.57 3.633T12 16.079q1.172 0 2.297-.516l-1.641-1.641q-.375.094-.656.094-1.219 0-2.109-.891T9 11.016v-.75l-6-6zM15 11.156L9 5.203v-.188q0-1.219.891-2.109T12 2.015t2.109.891T15 5.015v6.141zm3.984-.14q0 1.734-.891 3.281l-1.219-1.266q.422-.938.422-2.016h1.688z"/></svg>
